X:385
T: Das Mtzenlied (4-84), S. 108
N: P0655
O: Lothringen
S: PINCK, Louis: Verklingende Weisen Bd 4, Kassel 1939]
R: ???, Liebe?]
M: 3/8
L: 1/16
K: G
G2 | B2B2A2 | G4B2 | d2d2c2 | d2B2
A2 | B2B2A2 | G4B2 | d2d2c2 | B4
A2 | B2B2A2 | B4A2 | d2d2cc | B4
A2 | B2B2A2 | G2G2B2 | d4c2 | B4z2 |
G2A2B2 | G2A2B2 | G2A2B2 | G2A2B2 | G2A2B2 | B4z2 |
e2e2e2 | d2d2d2 | c2B2A2 | B4

@@@ Tune index: 7935
